img/logo/info.svg

<svg width="83" height="83" viewBox="0 0 83 83" fill="none" xmlns="http://www.w3.org/2000/svg">
<rect width="82.533" height="82.533" rx="12" fill="#F2F2F2"/>
<path d="M63.9605 30.0638C60.2041 24.3614 53.4238 20.7559 48.3119 28.1106C44.1969 34.0323 51.535 38.481 50.3382 44.1928C48.2238 54.2878 33.7981 50.8915 35.3679 56.1427C37.9112 64.6675 51.155 60.0011 59.1482 52.4282C67.1321 44.8652 67.7197 35.7743 63.9605 30.0638Z" fill="#366EFC"/>
<path d="M60.154 14.6249C62.1442 15.4499 63.1198 17.8113 62.3377 19.9002C61.5536 21.9943 59.3094 23.021 57.3193 22.1959C55.3341 21.3729 54.3536 19.0095 55.1376 16.9153C55.9247 14.8285 58.1688 13.8019 60.154 14.6249Z" fill="#366EFC"/>
<path d="M66.1865 21.2619C67.5001 21.8065 68.1435 23.3639 67.626 24.7461C67.1084 26.1283 65.6284 26.8054 64.3148 26.2608C63.0012 25.7162 62.3578 24.1589 62.8753 22.7766C63.3929 21.3944 64.8729 20.7174 66.1865 21.2619Z" fill="#366EFC"/>
<path d="M69.6713 26.8552C70.8417 27.3404 71.4163 28.7311 70.9552 29.9627C70.4941 31.1942 69.1724 31.7988 68.002 31.3136C66.8316 30.8284 66.257 29.4377 66.7181 28.2061C67.1792 26.9746 68.5009 26.37 69.6713 26.8552Z" fill="#366EFC"/>
<path d="M28.9722 50.6385C31.7124 45.5492 39.9987 47.396 40.7 40.1041C41.5707 31.0456 34.2444 28.9539 27.8168 30.5485C21.3921 32.1511 16.0564 39.3267 17.1825 50.5783C18.3108 61.8238 25.1986 74.6107 32.5028 70.0581C37.0147 67.2531 24.1288 59.6326 28.9722 50.6385Z" fill="#366EFC"/>
<path d="M40.5231 21.582C42.5223 22.3667 43.5388 24.7089 42.7931 26.8125C42.0455 28.9213 39.8196 29.991 37.8204 29.2063C35.8163 28.4197 34.7998 26.0774 35.5474 23.9686C36.2931 21.865 38.519 20.7954 40.5231 21.582Z" fill="#366EFC"/>
<path d="M31.8269 22.27C33.1497 22.7892 33.8201 24.334 33.3267 25.7259C32.8333 27.1179 31.3652 27.8233 30.0424 27.3041C28.7196 26.7849 28.0492 25.2401 28.5426 23.8482C29.0342 22.4615 30.5041 21.7508 31.8269 22.27Z" fill="#366EFC"/>
<path d="M25.6796 23.9829C26.8582 24.4455 27.4569 25.8249 27.0173 27.0651C26.5776 28.3053 25.2666 28.9353 24.088 28.4727C22.9094 28.0101 22.3108 26.6306 22.7504 25.3904C23.19 24.1502 24.501 23.5203 25.6796 23.9829Z" fill="#366EFC"/>
</svg>

<?xml version="1.0" encoding="utf-8"?>
<!-- Generator: Adobe Illustrator 23.1.0, SVG Export Plug-In . SVG Version: 6.00 Build 0)  -->
<svg version="1.1" id="Capa_1" xmlns="http://www.w3.org/2000/svg" xmlns:xlink="http://www.w3.org/1999/xlink" x="0px" y="0px"
	 viewBox="0 0 83 83" style="enable-background:new 0 0 83 83;" xml:space="preserve">
<style type="text/css">
	.st0{fill:#F2F2F2;}
	.st1{fill:#366EFC;}
</style>
<g>
	<g>
		<path class="st0" d="M12,0h58.5c6.6,0,12,5.4,12,12v58.5c0,6.6-5.4,12-12,12H12c-6.6,0-12-5.4-12-12V12C0,5.4,5.4,0,12,0z"/>
		<path class="st1" d="M64,30.1c-3.8-5.7-10.5-9.3-15.6-2c-4.1,5.9,3.2,10.4,2,16.1c-2.1,10.1-16.5,6.7-15,11.9
			c2.5,8.5,15.8,3.9,23.8-3.7C67.1,44.9,67.7,35.8,64,30.1z"/>
		<path class="st1" d="M60.2,14.6c2,0.8,3,3.2,2.2,5.3s-3,3.1-5,2.3c-2-0.8-3-3.2-2.2-5.3C55.9,14.8,58.2,13.8,60.2,14.6z"/>
		<path class="st1" d="M66.2,21.3c1.3,0.5,2,2.1,1.4,3.5c-0.5,1.4-2,2.1-3.3,1.5c-1.3-0.5-2-2.1-1.4-3.5
			C63.4,21.4,64.9,20.7,66.2,21.3z"/>
		<path class="st1" d="M69.7,26.9c1.2,0.5,1.7,1.9,1.3,3.1c-0.5,1.2-1.8,1.8-3,1.4c-1.2-0.5-1.7-1.9-1.3-3.1
			C67.2,27,68.5,26.4,69.7,26.9z"/>
		<path class="st1" d="M29,50.6c2.7-5.1,11-3.2,11.7-10.5c0.9-9.1-6.5-11.2-12.9-9.6s-11.8,8.8-10.6,20c1.1,11.2,8,24,15.3,19.5
			C37,67.3,24.1,59.6,29,50.6z"/>
		<path class="st1" d="M40.5,21.6c2,0.8,3,3.1,2.3,5.2s-3,3.2-5,2.4c-2-0.8-3-3.1-2.3-5.2C36.3,21.9,38.5,20.8,40.5,21.6z"/>
		<path class="st1" d="M31.8,22.3c1.3,0.5,2,2.1,1.5,3.5s-2,2.1-3.3,1.6s-2-2.1-1.5-3.5S30.5,21.8,31.8,22.3z"/>
		<path class="st1" d="M25.7,24c1.2,0.5,1.8,1.8,1.3,3.1c-0.4,1.2-1.8,1.9-2.9,1.4c-1.2-0.5-1.8-1.8-1.3-3.1S24.5,23.5,25.7,24z"/>
	</g>
</g>
</svg>
